Square/If.svg

<?xml version="1.0" encoding="UTF-8"?>
<svg width="32px" height="32px" viewBox="0 0 32 32" version="1.1" xmlns="http://www.w3.org/2000/svg" xmlns:xlink="http://www.w3.org/1999/xlink">
    <!-- Generator: Sketch 52.3 (67297) - http://www.bohemiancoding.com/sketch -->
    <title>Square/If</title>
    <desc>Created with Sketch.</desc>
    <g id="Square/If" stroke="none" stroke-width="1" fill="none" fill-rule="evenodd">
        <path d="M32,16.0000203 C32,24.8359918 24.83668,32 16.0004,32 C7.16328,32 0,24.8359918 0,16.0000203 C0,7.16319597 7.16328,-1.24344979e-14 16.0004,-1.24344979e-14 C24.83668,-1.24344979e-14 32,7.16319597 32,16.0000203 Z M21.59764,4.49157148 C20.26208,4.49157148 18.98752,5.07063259 18.05996,6.01396738 C16.72836,7.39240005 16.11684,9.42628166 15.70732,10.829649 L14.34804,10.811943 C14.25456,10.811943 14.17692,10.8931634 14.15552,10.9607388 L13.94876,11.6724735 C13.9274,11.7448409 13.97252,11.8389348 14.07152,11.8389348 L15.43164,11.8204571 C15.43164,11.8204571 13.60256,19.2763716 13.23188,20.7859347 C12.76772,22.680645 12.01832,24.609996 11.4852,25.2935878 C11.00756,25.9048122 10.68832,26.0937715 10.36436,26.0937715 C9.91124,26.0937715 9.676,25.7616206 9.54768,25.2155755 C9.46052,24.8199102 9.2086,24.2794288 8.6478,24.2794288 C8.0648,24.2794288 7.26632,24.9517716 7.26632,25.7616206 C7.26632,26.8585838 9.06844,27.1054939 9.67124,27.1054939 C10.85784,27.1054939 12.39304,26.3366206 13.42756,25.1319185 C14.74332,23.618335 15.47364,21.7228124 16.15724,19.0503757 L17.82788,11.8091675 L19.57696,11.8397064 C19.71872,11.8397064 19.78128,11.7383839 19.80748,11.6635799 L20.03484,11.0000901 C20.0602,10.9245145 20.01976,10.8296084 19.90968,10.8296084 L18.1036,10.8296084 C18.53532,9.29352686 19.18328,7.02402475 20.41112,5.77428586 C20.51964,5.66411034 20.8262,5.39547374 21.1058,5.39307773 C21.59776,5.38824512 21.7348,5.67377557 21.93996,6.13457973 C22.13956,6.58815527 22.10628,7.36746538 22.7828,7.36746538 C23.56464,7.36746538 24.1532,6.47879195 24.1532,5.86435933 C24.15308,5.02961627 22.73276,4.49157148 21.59764,4.49157148 Z M19.87556,18.0057184 C19.13012,18.0241961 18.58832,18.6547103 18.55504,19.43 C18.52256,20.1875431 18.9836,20.6194328 19.63788,20.6194328 C20.7548,20.6194328 20.95916,19.5916287 20.9742,19.2313348 C21.01228,18.3483468 20.40624,18.0057184 19.87556,18.0057184 Z M23.76808,18.0057184 C23.02268,18.0241961 22.48008,18.6547103 22.4484,19.43 C22.41512,20.1875431 22.87612,20.6194328 23.53048,20.6194328 C24.6474,20.6194328 24.85176,19.5916287 24.86604,19.2313348 C24.9048,18.3483468 24.29804,18.0057184 23.76808,18.0057184 Z M27.66068,18.0057184 C26.91448,18.0241961 26.37268,18.6547103 26.34016,19.43 C26.30692,20.1875431 26.76872,20.6194328 27.423,20.6194328 C28.53992,20.6194328 28.74428,19.5916287 28.75936,19.2313348 C28.7974,18.3483468 28.19064,18.0057184 27.66068,18.0057184 Z M11.99536,5.82338362 C11.20164,5.84348568 10.61464,6.51420406 10.56396,7.3409469 C10.51564,8.14835928 10.99728,8.61001626 11.69672,8.61001626 C12.88572,8.61001626 13.12176,7.51386522 13.14556,7.12863668 C13.20176,6.1885101 12.56332,5.82338362 11.99536,5.82338362 Z M11.40204,17.4508204 C11.34656,17.3969306 11.2436,17.3768286 11.1612,17.4620694 C11.1612,17.4620694 9.94688,18.8364817 9.53336,18.8364817 C9.34644,18.8364817 9.352,18.6040288 9.352,18.5670735 C9.352,18.3635757 9.474,17.9936572 9.53812,17.8183023 L10.057,16.437433 L11.30616,13.3685593 C11.5644,12.7549389 11.87336,11.9603593 11.87336,11.4352286 C11.87336,10.7540328 11.36636,10.5891959 11.0012,10.5891959 C9.31868,10.5891959 7.51184,12.5876654 6.82268,13.3838694 C6.82028,13.386306 6.81712,13.391098 6.81712,13.391098 C6.76564,13.4466122 6.73236,13.5495185 6.83612,13.6492572 L7.15376,13.9564735 C7.2124,14.0119876 7.31932,14.0151958 7.38588,13.9428284 C7.38588,13.9428284 8.21288,13.0260121 8.51628,12.8008284 C8.59628,12.7381263 8.72616,12.6528448 8.80144,12.6528448 C8.9084,12.6528448 8.96144,12.8152857 8.96144,12.9045469 C8.96144,13.1892246 8.67944,13.868796 8.54876,14.2194652 L7.2536,17.5529551 C6.80052,18.6716448 6.589,19.264351 6.589,19.768608 C6.589,20.3388161 6.90188,20.7891835 7.679,20.7891835 C9.47796,20.7899957 11.7482,18.0322775 11.7482,18.0322775 C11.83612,17.9301428 11.79176,17.8296325 11.73712,17.7781388 L11.40204,17.4508204 Z" id="If" fill="#00A7E4"></path>
    </g>
</svg>

<svg width="32" height="32" xmlns="http://www.w3.org/2000/svg"><path d="M32 16c0 8.836-7.163 16-16 16S0 24.836 0 16C0 7.163 7.163 0 16 0s16 7.163 16 16zM21.598 4.492c-1.336 0-2.61.579-3.538 1.522-1.332 1.378-1.943 3.412-2.353 4.816l-1.359-.018c-.093 0-.171.081-.192.149l-.207.711c-.022.073.024.167.123.167l1.36-.019-2.2 8.966c-.464 1.895-1.214 3.824-1.747 4.508-.477.61-.797.8-1.12.8-.454 0-.689-.332-.817-.878-.087-.396-.34-.937-.9-.937-.583 0-1.382.673-1.382 1.483 0 1.097 1.802 1.343 2.405 1.343 1.187 0 2.722-.768 3.757-1.973 1.315-1.514 2.046-3.41 2.73-6.082l1.67-7.24 1.749.03c.142 0 .204-.102.23-.176l.228-.664c.025-.075-.015-.17-.125-.17h-1.806c.431-1.536 1.08-3.806 2.307-5.056.109-.11.415-.379.695-.38.492-.006.629.28.834.74.2.454.166 1.233.843 1.233.782 0 1.37-.888 1.37-1.503 0-.834-1.42-1.372-2.555-1.372zm-1.722 13.514c-.746.018-1.288.649-1.321 1.424-.032.758.429 1.19 1.083 1.19 1.117 0 1.321-1.028 1.336-1.389.038-.883-.568-1.225-1.098-1.225zm3.892 0c-.745.018-1.288.649-1.32 1.424-.033.758.428 1.19 1.082 1.19 1.117 0 1.322-1.028 1.336-1.389.039-.883-.568-1.225-1.098-1.225zm3.893 0c-.747.018-1.288.649-1.32 1.424-.034.758.428 1.19 1.082 1.19 1.117 0 1.321-1.028 1.336-1.389.038-.883-.568-1.225-1.098-1.225zM11.995 5.823c-.793.02-1.38.691-1.431 1.518-.048.807.433 1.269 1.133 1.269 1.189 0 1.425-1.096 1.449-1.481.056-.94-.583-1.306-1.15-1.306zm-.593 11.628a.165.165 0 0 0-.24.011s-1.215 1.374-1.629 1.374c-.187 0-.181-.232-.181-.269 0-.203.122-.573.186-.749l.519-1.38 1.25-3.07c.257-.613.566-1.408.566-1.933 0-.681-.507-.846-.872-.846-1.682 0-3.49 1.999-4.178 2.795a.061.061 0 0 0-.006.007c-.051.056-.085.159.02.258l.317.307a.165.165 0 0 0 .232-.013s.827-.917 1.13-1.142c.08-.063.21-.148.285-.148.107 0 .16.162.16.252 0 .284-.282.964-.412 1.314l-1.295 3.334c-.453 1.119-.665 1.711-.665 2.216 0 .57.313 1.02 1.09 1.02 1.799.001 4.07-2.757 4.07-2.757.087-.102.043-.202-.012-.254l-.335-.327z" fill="#00A7E4" fill-rule="evenodd"/></svg>
